X:1
T: The Bridge of Alford
C:A. Troup
R:Reel
Q: 232
K:D
M:4/4
L:1/8
|:AG|F2d2 ec dB|A2F2 F2A2|GF GE ef ed|c2A2 A2AG|
F2d2 ec dB|A2F2 F2A2|GF GE AB AG|F2D2 D2:|
|:de|fa fd gf ed|cd ec A2de|fa fd gf ed|c2A2 A2F2|
GF GE e3F|GF GE d3F|GF GE AB AG|F2D2 D2:|
